symbols/web/wifi_tethering/materialsymbolsoutlined/wifi_tethering_wght700grad200_40px.svg

<svg xmlns="http://www.w3.org/2000/svg" height="40" width="40"><path d="M19.958 26.083q-1.833 0-3.104-1.291-1.271-1.292-1.271-3.167 0-1.833 1.292-3.125t3.167-1.292q1.833 0 3.125 1.313 1.291 1.312 1.291 3.187 0 1.834-1.312 3.104-1.313 1.271-3.188 1.271Zm-7.833 4.042q-1.792-1.542-2.75-3.75t-.958-4.708q0-4.834 3.354-8.25Q15.125 10 20 10q4.833 0 8.25 3.396t3.417 8.271q0 2.541-1 4.708-1 2.167-2.75 3.75l-2.709-2.708q1.167-1.084 1.834-2.542.666-1.458.666-3.208 0-3.209-2.229-5.459-2.229-2.25-5.479-2.25-3.208 0-5.458 2.23-2.25 2.229-2.25 5.437 0 1.75.666 3.229.667 1.479 1.875 2.563Zm-5.083 5.083q-2.792-2.541-4.313-6.02-1.521-3.48-1.521-7.521 0-3.875 1.459-7.313 1.458-3.437 4.021-6 2.562-2.562 5.979-4.041 3.416-1.48 7.333-1.48 3.875 0 7.312 1.48 3.438 1.479 6 4.041 2.563 2.563 4.042 6 1.479 3.438 1.479 7.313 0 4.041-1.562 7.5-1.563 3.458-4.271 6.041L30.25 32.5q2.083-2.083 3.396-4.833 1.312-2.75 1.312-6 0-6.209-4.375-10.584T20 6.708q-6.208 0-10.562 4.375-4.355 4.375-4.355 10.542 0 3.292 1.229 6.042 1.23 2.75 3.438 4.833Z"/></svg>

<svg xmlns="http://www.w3.org/2000/svg" height="40" width="40"><path d="M19.958 26.083Q18.125 26.083 16.854 24.792Q15.583 23.5 15.583 21.625Q15.583 19.792 16.875 18.5Q18.167 17.208 20.042 17.208Q21.875 17.208 23.167 18.521Q24.458 19.833 24.458 21.708Q24.458 23.542 23.146 24.812Q21.833 26.083 19.958 26.083ZM12.125 30.125Q10.333 28.583 9.375 26.375Q8.417 24.167 8.417 21.667Q8.417 16.833 11.771 13.417Q15.125 10 20 10Q24.833 10 28.25 13.396Q31.667 16.792 31.667 21.667Q31.667 24.208 30.667 26.375Q29.667 28.542 27.917 30.125L25.208 27.417Q26.375 26.333 27.042 24.875Q27.708 23.417 27.708 21.667Q27.708 18.458 25.479 16.208Q23.25 13.958 20 13.958Q16.792 13.958 14.542 16.188Q12.292 18.417 12.292 21.625Q12.292 23.375 12.958 24.854Q13.625 26.333 14.833 27.417ZM7.042 35.208Q4.25 32.667 2.729 29.188Q1.208 25.708 1.208 21.667Q1.208 17.792 2.667 14.354Q4.125 10.917 6.688 8.354Q9.25 5.792 12.667 4.313Q16.083 2.833 20 2.833Q23.875 2.833 27.312 4.313Q30.75 5.792 33.312 8.354Q35.875 10.917 37.354 14.354Q38.833 17.792 38.833 21.667Q38.833 25.708 37.271 29.167Q35.708 32.625 33 35.208L30.25 32.5Q32.333 30.417 33.646 27.667Q34.958 24.917 34.958 21.667Q34.958 15.458 30.583 11.083Q26.208 6.708 20 6.708Q13.792 6.708 9.438 11.083Q5.083 15.458 5.083 21.625Q5.083 24.917 6.312 27.667Q7.542 30.417 9.75 32.5Z"/></svg>
